packages/foundations/assets/icons/functional/images/editing/pin_32.svg

<svg width="32" height="32" viewBox="0 0 32 32" fill="none" xmlns="http://www.w3.org/2000/svg">
<g clip-path="url(#clip0_2622_92)">
<path fill-rule="evenodd" clip-rule="evenodd" d="M19.1265 1.80363C20.5035 3.13663 24.2435 6.82663 30.3445 12.8736C30.523 13.053 30.6269 13.2934 30.6352 13.5464C30.6435 13.7993 30.5555 14.046 30.3891 14.2367C30.2226 14.4273 29.9901 14.5478 29.7384 14.5738C29.4866 14.5997 29.2344 14.5293 29.0325 14.3766L27.5415 12.9136L21.9285 18.4706C26.2805 23.7656 18.7445 29.9906 18.3815 30.2846C18.2069 30.4259 17.9899 30.5044 17.7653 30.5073C17.5407 30.5102 17.3217 30.4374 17.1435 30.3006L10.0575 23.2986L3.18952 30.0986C3.00888 30.2788 2.76623 30.383 2.51123 30.3901C2.25623 30.3972 2.00815 30.3066 1.81778 30.1368C1.6274 29.967 1.50912 29.7309 1.48714 29.4767C1.46515 29.2225 1.54113 28.9696 1.69952 28.7696L8.63552 21.8926L1.66152 14.9866C1.49938 14.8265 1.39681 14.6157 1.37081 14.3893C1.3448 14.1629 1.39691 13.9344 1.51852 13.7416C2.75852 12.2176 8.38452 6.39663 13.5095 10.1436L19.1265 4.58363L17.7475 3.21763C17.5591 3.03103 17.4525 2.77725 17.4512 2.51208C17.4499 2.24691 17.554 1.99208 17.7405 1.80363C17.8075 1.73663 18.4405 1.13863 19.1265 1.80363ZM3.75252 14.2426L17.7845 28.1326C21.3845 24.6436 22.1235 21.6996 20.0015 19.2996L12.8515 12.2176C10.5615 9.90963 7.52852 10.5846 3.75252 14.2426ZM20.5485 5.99063L14.9765 11.5066L20.5485 17.0226L26.1205 11.5066L20.5485 5.99063Z" fill="#282D37"/>
</g>
<defs>
<clipPath id="clip0_2622_92">
<rect width="32" height="32" fill="white"/>
</clipPath>
</defs>
</svg>

<svg xmlns="http://www.w3.org/2000/svg" width="32" height="32" fill="none"><g clip-path="url(#a)"><path fill="#282D37" fill-rule="evenodd" d="M19.127 1.804q2.066 2 11.218 11.07a1 1 0 0 1-1.312 1.503l-1.492-1.463-5.613 5.557c4.352 5.295-3.184 11.52-3.547 11.814a1 1 0 0 1-1.238.016l-7.086-7.002-6.867 6.8a1 1 0 0 1-1.49-1.33l6.936-6.876-6.974-6.906a1 1 0 0 1-.143-1.245c1.24-1.524 6.866-7.345 11.99-3.598l5.618-5.56-1.38-1.366a1 1 0 0 1-.006-1.414c.067-.067.7-.665 1.386 0M3.752 14.243l14.032 13.89q5.4-5.234 2.217-8.833l-7.15-7.082q-3.435-3.462-9.1 2.025M20.549 5.99l-5.572 5.516 5.572 5.516 5.572-5.516z" clip-rule="evenodd"/></g><defs><clipPath id="a"><path fill="#fff" d="M0 0h32v32H0z"/></clipPath></defs></svg>
